X: 194
T: No_52_Cow_Creek_Hunting_Dance_Song_(s).krn
N: Derived from No_52_Cow_Creek_Hunting_Dance_Song_(s).krn
%%abc-version 2.0
%%abcx-abcm2ps-target-version 5.9.1 (29 Sep 2008)
%%abc-creator hum2abc beta
%%abcx-conversion-date 2019/03/15 08:38:45
%%humdrum-veritas 1396577360
%%humdrum-veritas-data 754731501
%%linebreak <none>
%%barnumbers 0
L: 1/8
M: 2/4
K: F clef=bass
[K:clef=bass][M:2/4]C2CA, ||  
[M:3/4]C6 ||  
[M:2/4](CA,) (CA,) | 
B,A, A,F, ||  
[M:3/4]A, zF,2F,2 ]|:  
C2CB, A,F, ||  
[M:2/4]B,4- | 
B,2-B,A, | 
F,2B,2 ||  
[M:3/4]B,A, B,A, A,F, ||  
[M:2/4]A, zF,2 | 
F,2z2 | 
C,C, F,F, | 
F,3E,/ z/ | 
F,4 | 
F,2A,F, | 
B,2A,3/F,/ ||  
[M:3/4]A,2F,2F,2 :|]  



